X:1
T:Memorial, 88.84
T:Memorial, 88.84
T:H. Ross Phillips, 1916
T:Public Domain Courtesy of the Cyber Hymnal™
C:H. Ross Phillips, 1916
Z:Public Domain
Z:Courtesy of the Cyber Hymnal™
%%score ( 1 2 ) 3
L:1/8
Q:1/4=102
M:4/4
K:G
V:1 treble 
V:2 treble 
V:3 bass 
V:1
 D2 D>[DG] [GB]3 [G^A] | [GB]2 [Gc]2 [FA]4 | D2 D>[DF] [DA]3 [D^G] | [DA]2 [DB]2 [DG]4 | %4
 D2 D>[DG] [DB]3 [Dd] | [Ed]2 [Ec]2 [CE]4 | [A,D]4 [^CE]2 [=CF]2 | [B,G]8 |] %8
V:2
 D2 D3/2 x9/2 | x8 | D2 D3/2 x9/2 | x8 | D2 D3/2 x9/2 | x8 | x8 | x8 |] %8
V:3
 [G,B,]2 [G,B,]>[G,B,] [G,D]3 [B,^C] | [G,D]2 [G,E]2 [D,C]4 | [D,C]2 [D,C]>[D,C] [D,C]3 [D,B,] | %3
 [D,C]2 [D,D]2 [G,B,]4 | [G,B,]2 [G,B,]>[G,B,] [G,B,]3 [G,B,] | [C,C]2 [C,C]2 [C,G,]4 | %6
 [D,F,]4 [D,G,]2 [D,A,]2 | [G,,G,]8 |] %8

